svg/fluentui-system-icons/ic_fluent_data_histogram_16_regular.svg

<svg width="16" height="16" viewBox="0 0 16 16" fill="none" xmlns="http://www.w3.org/2000/svg">
<path d="M6.5 4V13H9.5V4C9.5 3.44772 9.05228 3 8.5 3H7.5C6.94772 3 6.5 3.44772 6.5 4ZM5.5 7V4C5.5 2.89543 6.39543 2 7.5 2H8.5C9.60457 2 10.5 2.89543 10.5 4V5H12C13.1046 5 14 5.89543 14 7V13.5C14 13.7761 13.7761 14 13.5 14H2.5C2.22386 14 2 13.7761 2 13.5V9C2 7.89543 2.89543 7 4 7H5.5ZM5.5 13V8H4C3.44772 8 3 8.44772 3 9V13H5.5ZM10.5 13H13V7C13 6.44772 12.5523 6 12 6H10.5V13Z" fill="#212121"/>
</svg>

<svg xmlns="http://www.w3.org/2000/svg" width="16" height="16"><path d="M6.5 4v9h3V4a1 1 0 0 0-1-1h-1a1 1 0 0 0-1 1Zm-1 3V4a2 2 0 0 1 2-2h1a2 2 0 0 1 2 2v1H12a2 2 0 0 1 2 2v6.5a.5.5 0 0 1-.5.5h-11a.5.5 0 0 1-.5-.5V9a2 2 0 0 1 2-2h1.5Zm0 6V8H4a1 1 0 0 0-1 1v4h2.5Zm5 0H13V7a1 1 0 0 0-1-1h-1.5v7Z"/></svg>
